img/slide2/1143.svg

<svg viewBox="0 0 260 666" xmlns="http://www.w3.org/2000/svg"><g fill="none" fill-rule="nonzero"><path d="m-89.4456522 454.900826v-244.83471h-38.7879598l-73.766388 52.937234 23.203512 36.046078 40.865886-30.822008v186.673406zm146.6304348 0v-244.83471h-38.7879599l-73.7663879 52.937234 23.2035117 36.046078 40.86588628-30.822008v186.673406zm186.9684794 0v-40.051197h32.977173v-41.444282h-32.977173v-163.339231h-38.878351l-111.948824 173.961505v30.822008h103.444184v40.051197zm-44.468479-78.512396h-54.728261l54.728261-87.809918zm180.64851 81.61157c15.77919 0 29.934049-2.835647 42.464582-8.506944 12.530532-5.671298 22.36352-13.773148 29.498962-24.305556s10.703163-22.685186 10.703163-36.458333c0-13.888889-3.422693-25.925925-10.268075-36.111111-6.845383-10.185187-16.301296-18.055556-28.367734-23.611112v-.868055c9.978016-5.902778 17.722581-13.599536 23.233696-23.090278s8.266671-20.081019 8.266671-31.770833c0-10.185186-2.059415-19.444445-6.178249-27.777778-4.118833-8.333333-9.716963-15.219908-16.794394-20.659722s-15.373106-9.606481-24.88703-12.5c-9.513924-2.89352-19.781999-4.340278-30.804225-4.340278-17.635564 0-33.182708 3.993056-46.641427 11.979167s-23.030654 18.460647-28.715804 31.423611l38.635809 20.659722c7.773572-13.657408 19.665975-20.486111 35.67721-20.486111 9.165854 0 16.852406 2.777778 23.059661 8.333333 6.207255 5.555556 9.310882 12.673611 9.310882 21.354167 0 8.449075-2.668539 15.364583-8.005618 20.746528-5.33708 5.381944-13.226673 8.072916-23.668784 8.072916h-21.580361v39.236111h17.577552c12.878603 0 22.827615 3.096064 29.847032 9.288195 7.019418 6.19213 10.529128 13.975694 10.529128 23.350694 0 9.837964-3.50971 17.708334-10.529128 23.611111-7.019417 5.902778-15.576148 8.854167-25.670188 8.854167-21.232291 0-35.32914-9.201389-42.290547-27.604167l-42.116512 17.534723c6.265266 15.85648 17.171472 28.761575 32.718613 38.715277 15.547141 9.953703 33.878848 14.930556 54.995115 14.930556z" opacity=".2" stroke="#fff" transform="matrix(0 -1 1 0 -202.5 463.5)"/><path d="m67.2743266 256.364525v-68.72905h-6.9477735l-19.3265531 14.175978 4.1099505 6.256983 13.7487631-10.314246v58.610335zm37.6256184 0v-68.72905h-6.9477735l-19.326553 14.175978 4.1099505 6.256983 13.7487631-10.314246v58.610335zm52.695437 0v-12.122905h10.030236v-7.625698h-10.030236v-48.980447h-7.143485l-33.271028 50.593575v6.01257h31.9989v12.122905zm-8.268829-19.553072h-21.968664l21.968664-33.875699zm47.411215 20.188547c4.207806 0 7.999725-.79027 11.375756-2.37081s6.034451-3.829143 7.975261-6.74581 2.911215-6.232542 2.911215-9.947626c0-4.040968-1.043797-7.560521-3.131391-10.558659s-4.958035-5.230447-8.611325-6.696927v-.097766c3.131391-1.499069 5.569635-3.617318 7.314734-6.354748 1.745098-2.737431 2.617647-5.817039 2.617647-9.238827 0-3.715084-.954096-6.949488-2.862287-9.703212-1.908192-2.753725-4.452447-4.823092-7.632766-6.208101-3.180318-1.385009-6.743906-2.077514-10.690764-2.077514-4.762323 0-8.904893.985801-12.427707 2.957402-3.522815 1.971601-6.197545 4.619414-8.024189 7.943436l6.800989 3.715084c3.098772-4.497207 7.600147-6.74581 13.504123-6.74581 3.65329 0 6.711289 1.04283 9.173997 3.128491 2.462708 2.085662 3.694063 4.790503 3.694063 8.114525 0 1.49907-.24464 2.892226-.73392 4.17947-.48928 1.287243-1.215045 2.444134-2.177295 3.47067-.962251 1.026536-2.258842 1.833101-3.889775 2.419693-1.630932.586592-3.506506.879888-5.626718.879888h-6.703133v7.332402h5.724574c2.479018 0 4.697086.325885 6.654205.977654s3.539124 1.547952 4.746014 2.688548c1.206891 1.140595 2.128368 2.444134 2.764431 3.910614.636064 1.46648.954096 3.030726.954096 4.692737 0 2.444135-.636064 4.619414-1.908191 6.525838-1.272128 1.906425-2.984607 3.364758-5.137438 4.375-2.152832 1.010243-4.533994 1.515364-7.143486 1.515364-2.642111 0-5.015118-.374768-7.119021-1.124302-2.103904-.749534-3.857156-1.792365-5.259758-3.128492-1.402603-1.336126-2.527946-2.949255-3.376031-4.839385l-7.29027 3.324022c1.761408 4.106145 4.705242 7.413874 8.831501 9.923185 4.12626 2.50931 9.027213 3.763966 14.702859 3.763966z" fill="#fff" transform="matrix(0 -1 1 0 -92 352)"/></g></svg>

<?xml version="1.0" encoding="UTF-8"?>
<svg viewBox="0 0 260 666" version="1.1" xmlns="http://www.w3.org/2000/svg" xmlns:xlink="http://www.w3.org/1999/xlink">
    <title>outlines /vertical 1143</title>
    <g id="outlines-/vertical-1143" stroke="none" stroke-width="1" fill="none" fill-rule="evenodd">
        <path d="M-89.4456522,454.900826 L-89.4456522,210.066116 L-128.233612,210.066116 L-202,263.00335 L-178.796488,299.049428 L-137.930602,268.22742 L-137.930602,454.900826 L-89.4456522,454.900826 Z M57.1847826,454.900826 L57.1847826,210.066116 L18.3968227,210.066116 L-55.3695652,263.00335 L-32.1660535,299.049428 L8.69983278,268.22742 L8.69983278,454.900826 L57.1847826,454.900826 Z M244.153262,454.900826 L244.153262,414.849629 L277.130435,414.849629 L277.130435,373.405347 L244.153262,373.405347 L244.153262,210.066116 L205.274911,210.066116 L93.326087,384.027621 L93.326087,414.849629 L196.770271,414.849629 L196.770271,454.900826 L244.153262,454.900826 Z M199.684783,376.38843 L144.956522,376.38843 L199.684783,288.578512 L199.684783,376.38843 Z M380.333293,458 C396.112483,458 410.267342,455.164353 422.797875,449.493056 C435.328407,443.821758 445.161395,435.719908 452.296837,425.1875 C459.432279,414.655092 463,402.502314 463,388.729167 C463,374.840278 459.577307,362.803242 452.731925,352.618056 C445.886542,342.432869 436.430629,334.5625 424.364191,329.006944 L424.364191,328.138889 C434.342207,322.236111 442.086772,314.539353 447.597887,305.048611 C453.109002,295.557869 455.864558,284.967592 455.864558,273.277778 C455.864558,263.092592 453.805143,253.833333 449.686309,245.5 C445.567476,237.166667 439.969346,230.280092 432.891915,224.840278 C425.814484,219.400464 417.518809,215.233797 408.004885,212.340278 C398.490961,209.446758 388.222886,208 377.20066,208 C359.565096,208 344.017952,211.993056 330.559233,219.979167 C317.100514,227.965278 307.528579,238.439814 301.843429,251.402778 L340.479238,272.0625 C348.25281,258.405092 360.145213,251.576389 376.156448,251.576389 C385.322302,251.576389 393.008854,254.354167 399.216109,259.909722 C405.423364,265.465278 408.526991,272.583333 408.526991,281.263889 C408.526991,289.712964 405.858452,296.628472 400.521373,302.010417 C395.184293,307.392361 387.2947,310.083333 376.852589,310.083333 L355.272228,310.083333 L355.272228,349.319444 L372.84978,349.319444 C385.728383,349.319444 395.677395,352.415508 402.696812,358.607639 C409.71623,364.799769 413.22594,372.583333 413.22594,381.958333 C413.22594,391.796297 409.71623,399.666667 402.696812,405.569444 C395.677395,411.472222 387.120664,414.423611 377.026624,414.423611 C355.794333,414.423611 341.697484,405.222222 334.736077,386.819444 L292.619565,404.354167 C298.884831,420.210647 309.791037,433.115742 325.338178,443.069444 C340.885319,453.023147 359.217026,458 380.333293,458 Z" id="Mask" stroke="#FFFFFF" opacity="0.200000003" fill-rule="nonzero" transform="translate(130.500000, 333.000000) rotate(-90.000000) translate(-130.500000, -333.000000) "></path>
        <path d="M67.2743266,256.364525 L67.2743266,187.635475 L60.3265531,187.635475 L41,201.811453 L45.1099505,208.068436 L58.8587136,197.75419 L58.8587136,256.364525 L67.2743266,256.364525 Z M104.899945,256.364525 L104.899945,187.635475 L97.9521715,187.635475 L78.6256185,201.811453 L82.735569,208.068436 L96.4843321,197.75419 L96.4843321,256.364525 L104.899945,256.364525 Z M157.595382,256.364525 L157.595382,244.24162 L167.625618,244.24162 L167.625618,236.615922 L157.595382,236.615922 L157.595382,187.635475 L150.451897,187.635475 L117.180869,238.22905 L117.180869,244.24162 L149.179769,244.24162 L149.179769,256.364525 L157.595382,256.364525 Z M149.326553,236.811453 L127.357889,236.811453 L149.326553,202.935754 L149.326553,236.811453 Z M196.737768,257 C200.945574,257 204.737493,256.20973 208.113524,254.62919 C211.489555,253.04865 214.147975,250.800047 216.088785,247.88338 C218.029595,244.966713 219,241.650838 219,237.935754 C219,233.894786 217.956203,230.375233 215.868609,227.377095 C213.781015,224.378957 210.910574,222.146648 207.257284,220.680168 L207.257284,220.582402 C210.388675,219.083333 212.826919,216.965084 214.572018,214.227654 C216.317116,211.490223 217.189665,208.410615 217.189665,204.988827 C217.189665,201.273743 216.235569,198.039339 214.327378,195.285615 C212.419186,192.53189 209.874931,190.462523 206.694612,189.077514 C203.514294,187.692505 199.950706,187 196.003848,187 C191.241525,187 187.098955,187.985801 183.576141,189.957402 C180.053326,191.929003 177.378596,194.576816 175.551952,197.900838 L182.352941,201.615922 C185.451713,197.118715 189.953088,194.870112 195.857064,194.870112 C199.510354,194.870112 202.568353,195.912942 205.031061,197.998603 C207.493769,200.084265 208.725124,202.789106 208.725124,206.113128 C208.725124,207.612198 208.480484,209.005354 207.991204,210.292598 C207.501924,211.579841 206.776159,212.736732 205.813909,213.763268 C204.851658,214.789804 203.555067,215.596369 201.924134,216.182961 C200.293202,216.769553 198.417628,217.062849 196.297416,217.062849 L189.594283,217.062849 L189.594283,224.395251 L195.318857,224.395251 C197.797875,224.395251 200.015943,224.721136 201.973062,225.372905 C203.930181,226.024674 205.512186,226.920857 206.719076,228.061453 C207.925967,229.202048 208.847444,230.505587 209.483507,231.972067 C210.119571,233.438547 210.437603,235.002793 210.437603,236.664804 C210.437603,239.108939 209.801539,241.284218 208.529412,243.190642 C207.257284,245.097067 205.544805,246.5554 203.391974,247.565642 C201.239142,248.575885 198.85798,249.081006 196.248488,249.081006 C193.606377,249.081006 191.23337,248.706238 189.129467,247.956704 C187.025563,247.20717 185.272311,246.164339 183.869709,244.828212 C182.467106,243.492086 181.341763,241.878957 180.493678,239.988827 L173.203408,243.312849 C174.964816,247.418994 177.90865,250.726723 182.034909,253.236034 C186.161169,255.745344 191.062122,257 196.737768,257 Z" id="1143" fill="#FFFFFF" fill-rule="nonzero" transform="translate(130.000000, 222.000000) rotate(-90.000000) translate(-130.000000, -222.000000) "></path>
    </g>
</svg>
